SVG/arrow-circle-o-down.svg

<?xml version="1.0" encoding="utf-8"?>
<!-- Generated by IcoMoon.io -->
<!DOCTYPE svg PUBLIC "-//W3C//DTD SVG 1.1//EN" "http://www.w3.org/Graphics/SVG/1.1/DTD/svg11.dtd">
<svg version="1.1" xmlns="http://www.w3.org/2000/svg" xmlns:xlink="http://www.w3.org/1999/xlink" width="12" height="14" viewBox="0 0 12 14">
<path fill="#444444" d="M8.75 7.25q0 0.094-0.078 0.187l-2.492 2.492q-0.086 0.070-0.18 0.070t-0.18-0.070l-2.5-2.5q-0.117-0.125-0.055-0.273 0.062-0.156 0.234-0.156h1.5v-2.75q0-0.109 0.070-0.18t0.18-0.070h1.5q0.109 0 0.18 0.070t0.070 0.18v2.75h1.5q0.109 0 0.18 0.070t0.070 0.18zM6 2.75q-1.156 0-2.133 0.57t-1.547 1.547-0.57 2.133 0.57 2.133 1.547 1.547 2.133 0.57 2.133-0.57 1.547-1.547 0.57-2.133-0.57-2.133-1.547-1.547-2.133-0.57zM12 7q0 1.633-0.805 3.012t-2.184 2.184-3.012 0.805-3.012-0.805-2.184-2.184-0.805-3.012 0.805-3.012 2.184-2.184 3.012-0.805 3.012 0.805 2.184 2.184 0.805 3.012z"></path>
</svg>

<svg xmlns="http://www.w3.org/2000/svg" viewBox="0 0 12 14"><path d="M8.75 7.25q0 .094-.078.187L6.18 9.93Q6.094 10 6 10t-.18-.07l-2.5-2.5q-.117-.126-.055-.274Q3.327 7 3.5 7H5V4.25q0-.11.07-.18T5.25 4h1.5q.108 0 .18.07t.07.18V7h1.5q.108 0 .18.07t.07.18zM6 2.75q-1.156 0-2.133.57T2.32 4.867 1.75 7t.57 2.133 1.547 1.547T6 11.25t2.133-.57T9.68 9.133 10.25 7t-.57-2.133T8.133 3.32 6 2.75zM12 7q0 1.633-.805 3.012T9.01 12.196 6 13t-3.013-.804-2.184-2.184T-.002 7t.805-3.012 2.184-2.184T6 1t3.01.804 2.185 2.184T12 7z" /></svg>
